icons/1_Primary/Tixte.svg

<svg xmlns="http://www.w3.org/2000/svg" width="1024" height="1024" fill="none">
   <g clip-path="url(#a)">
      <path fill="#9ABEFF" d="M512 1024c282.77 0 512-229.23 512-512S794.77 0 512 0 0 229.23 0 512s229.23 512 512 512Z"/>
      <path fill="#fff" d="M304.7 268.44c34.34.07 68.68-.09 103 .08a126607.24 126607.24 0 0 0 99.64 233.16c.36 1.11 1.36 2.34.49 3.5-40.4 83.6-80.797 167.207-121.19 250.82h-99.08c44.06-84.267 88.093-168.557 132.1-252.87A157069.61 157069.61 0 0 0 304.7 268.44Zm295.47 37.76c-28.154 65.867-56.31 131.747-84.47 197.64a179480.09 179480.09 0 0 1 121.65 251.77c33.033-.04 66.063-.04 99.09 0-44-84.267-88.02-168.513-132.06-252.74 38.326-78.28 76.66-156.56 115-234.84-34.34.11-68.69-.15-103 .12-5.23 12.75-10.86 25.34-16.21 38.04v.01Z"/>
   </g>
   <defs>
      <clipPath id="a">
         <path fill="#fff" d="M0 0h1024v1024H0z"/>
      </clipPath>
   </defs>
</svg>

<svg width="1024" height="1024" viewBox="0 0 1024 1024" fill="none" xmlns="http://www.w3.org/2000/svg">
<g clip-path="url(#clip0_2_3663)">
<path d="M512 1024C794.77 1024 1024 794.77 1024 512C1024 229.23 794.77 0 512 0C229.23 0 0 229.23 0 512C0 794.77 229.23 1024 512 1024Z" fill="#9ABEFF"/>
<path d="M304.7 268.44C339.04 268.51 373.38 268.35 407.7 268.52C440.833 346.267 474.046 423.987 507.34 501.68C507.7 502.79 508.7 504.02 507.83 505.18C467.43 588.78 427.033 672.387 386.64 756H287.56C331.62 671.733 375.653 587.443 419.66 503.13C381.406 424.87 343.086 346.64 304.7 268.44ZM600.17 306.2C572.016 372.067 543.86 437.947 515.7 503.84C556.313 587.727 596.863 671.65 637.35 755.61C670.383 755.57 703.413 755.57 736.44 755.61C692.44 671.343 648.42 587.097 604.38 502.87C642.706 424.59 681.04 346.31 719.38 268.03C685.04 268.14 650.69 267.88 616.38 268.15C611.15 280.9 605.52 293.49 600.17 306.19V306.2Z" fill="white"/>
</g>
<defs>
<clipPath id="clip0_2_3663">
<rect width="1024" height="1024" fill="white"/>
</clipPath>
</defs>
</svg>
